X: 1
T: String Quartet in E\b major opus 1 no 2 mvt 5
C: Franz Joseph Haydn
%%abc-version 2.0
%%abcx-abcm2ps-target-version 5.9.1 (29 Sep 2008)
%%abc-creator hum2abc beta
%%abcx-conversion-date 2021/02/14 14:38:21
%%abc-copyright Copyright (c) 1994, 2000 Center for Computer Assisted Research in the Humanities
%%abc-edited-by Frances Bennion
%%abcx-initial-encoding-date 1997/04/15
%%gracespace 0 6 6
%%humdrum-veritas 2969893883
%%humdrum-veritas-data 1863743712
%%linebreak <none>
%%barnumbers 0
L: 1/8
M: 2/4
N: Derived from op01n2-05.krn
Q: "Presto"
%%staves [1 2 3 4]
V: 1
V: 2
V: 3 clef=alto
V: 4 clef=bass
K: Eb
[V:1]z3 B [I:setbarnb1]|
[V:2]z3 z |
[V:3]z3 z |
[V:4]z3 z |
[V:1]eB ge |
[V:2]z4 |
[V:3]z4 |
[V:4]z4 |
[V:1]a2 fd |
[V:2]f2 dd |
[V:3]B3 d |
[V:4]B,3 D |
[V:1]eB GE |
[V:2]eB GE |
[V:3]eB GE |
[V:4]EB, G,E, |
[V:1]B2 zB, |
[V:2]B2 z2 |
[V:3]B2 z2 |
[V:4]B,2 z2 |
[V:1]EB, GE |
[V:2]z4 |
[V:3]z4 |
[V:4]z4 |
[V:1]A2 FD |
[V:2]F2 DD |
[V:3]B,3 D |
[V:4]B,,3 D, |
[V:1]EC A,B, |
[V:2]EC A,B, |
[V:3]EC A,B, |
[V:4]E,C, A,,B,, |
[V:1]E2 zg |
[V:2]E2 z2 |
[V:3]E2 zE |
[V:4]E,2 z2 |
[V:1]fB =Ae |
[V:2]z3 c |
[V:3]D2 z=A, |
[V:4]z3 F, |
[V:1]e2 dg |
[V:2]c2 Bz |
[V:3]B,F, B,E |
[V:4]B,F, B,,2 |
[V:1]fB =Ae |
[V:2]z3 c |
[V:3]D2 z=A, |
[V:4]z3 F, |
[V:1]e2 df |
[V:2]c2 Bz |
[V:3]B,F, B,2 |
[V:4]B,F, B,,2 |
[V:1]bf bf |
[V:2][B2D2] [B2D2] |
[V:3]Fz Fz |
[V:4]B,2 B,2 |
[V:1]bf bD |
[V:2][B2D2] [BD]D |
[V:3]Fz FD |
[V:4]B,2 B,D, |
[V:1]EC FD |
[V:2]EC FD |
[V:3]EC FD |
[V:4]E,C, F,D, |
[V:1]B,2 F/F/F/F/ |
[V:2]B,2 f2- |
[V:3]B,2 _d2- |
[V:4]B,,2 z2 |
[V:1]F/F/F/F/ F/F/F/F/ |
[V:2]fe2 _d- |
[V:3]dc2 B- |
[V:4]=A,2 B,2 |
[V:1]F/F/F/F/ F/F/F/F/ |
[V:2]dc f2- |
[V:3]B=A _d2- |
[V:4]F,2 z2 |
[V:1]F/F/F/F/ F/F/F/F/ |
[V:2]fe2 _d- |
[V:3]dc2 B- |
[V:4]=A,2 B,2 |
[V:1]F/F/F/F/ F/F/F/F/ |
[V:2]dc f2- |
[V:3]B=A _d2- |
[V:4]F,2 z2 |
[V:1]F/F/F/F/ F/F/F/F/ |
[V:2]fe2 _d- |
[V:3]dc2 B- |
[V:4]=A,2 B,2 |
[V:1]F2 zf |
[V:2]dc z2 |
[V:3]B=A z2 |
[V:4]F,2 z2 |
[V:1]bf bf |
[V:2][B2D2] [B2D2] |
[V:3]F2 F2 |
[V:4]B,2 B,2 |
[V:1]b/=a/b/c'/ d'D |
[V:2][B2D2] zD |
[V:3]F2 zD |
[V:4]B,2 zD, |
[V:1]EF G=A |
[V:2]EF G=A |
[V:3]EF G=A |
[V:4]E,F, G,=A, |
[V:1]B/c/d/c/ BD |
[V:2]B/c/d/c/ BD |
[V:3]B/c/d/c/ BD |
[V:4]B,/C/D/C/ B,D, |
[V:1]E2 [E2=A2C2] |
[V:2]E2 [E2=A2C2] |
[V:3]E2 F2 |
[V:4]E,2 F,2 |
[V:1][B,2B2D2] zF |
[V:2][B,2D2B2] zz |
[V:3]B,2 zz |
[V:4]B,,2 zz |
[V:1]BF dB |
[V:2]z4 |
[V:3]z4 |
[V:4]z4 |
[V:1]e2 c=A |
[V:2]c2 =AA |
[V:3]F3 =A |
[V:4]F,3 =A, |
[V:1]BG EF |
[V:2]BG EF |
[V:3]BG EF |
[V:4]B,G, E,F, |
[V:1]B,2 zB |
[V:2]B,2 z2 |
[V:3]B,2 z2 |
[V:4]B,,2 z2 |
[V:1]eB ge |
[V:2]z4 |
[V:3]z4 |
[V:4]z4 |
[V:1]a2 fd |
[V:2]f2 dd |
[V:3]B3 d |
[V:4]B,3 D |
[V:1]eB GE |
[V:2]eB GE |
[V:3]eB GE |
[V:4]EB, G,E, |
[V:1]B2 zg |
[V:2]B2 z2 |
[V:3]B2 z2 |
[V:4]B,2 z2 |
[V:1]bE B_d |
[V:2]_D/D/D/D/ D/D/D/D/ |
[V:3]E/E/E/E/ E/E/E/E/ |
[V:4]G,G, G,G, |
[V:1]cE A,c |
[V:2]C/C/C/C/ C/C/C/C/ |
[V:3]E/E/E/E/ E/E/E/E/ |
[V:4]A,A, A,A, |
[V:1]gC GB |
[V:2]G/G/G/G/ G/G/G/G/ |
[V:3]C/C/C/C/ C/C/C/C/ |
[V:4]=E,E, E,E, |
[V:1]AF A,f |
[V:2]A/A/A/A/ A/A/A/A/ |
[V:3]C/C/C/C/ C/C/C/C/ |
[V:4]F,F, F,F, |
[V:1]f/g/f/g/ ac |
[V:2]A/A/A/A/ A/A/A/A/ |
[V:3]D/D/D/D/ C/C/C/C/ |
[V:4]F,F, F,F, |
[V:1]=B/G/G/G/ G/G/G/G/ |
[V:2]G2 g2- |
[V:3]G,2 e2- |
[V:4]G,2 z2 |
[V:1]G/G/G/G/ G/G/G/G/ |
[V:2]gf2 e- |
[V:3]ed2 c- |
[V:4]=B,2 C2 |
[V:1]G/G/G/G/ G/G/G/G/ |
[V:2]ed G2- |
[V:3]c=B E2- |
[V:4]G,2 z2 |
[V:1]G/G/G/G/ G/G/G/G/ |
[V:2]GF2 E |
[V:3]ED2 C |
[V:4]=B,,2 C,2 |
[V:1]Gz2 G |
[V:2]Dz3 |
[V:3]=B,z3 |
[V:4]G,,z3 |
[V:1]c2- c3/d//e// |
[V:2]GG GG |
[V:3]EE EE |
[V:4]z4 |
[V:1]d2 za |
[V:2]AA Af |
[V:3]FF FF |
[V:4]z4 |
[V:1]gf ed |
[V:2]ed c=B |
[V:3]GG GG |
[V:4]z4 |
[V:1]c2 zG |
[V:2]c2 zG |
[V:3]E2 zG |
[V:4]z3 G, |
[V:1]cG e=B |
[V:2]cG e=B |
[V:3]cG e=B |
[V:4]CG, E=B, |
[V:1]c2 zG |
[V:2]c2 zG |
[V:3]c2 zG |
[V:4]C2 zG, |
[V:1]cG EC |
[V:2]cG EC |
[V:3]cG EC |
[V:4]CG, E,C, |
[V:1]G2 zB |
[V:2]G2 z2 |
[V:3]G2 z2 |
[V:4]G,2 z2 |
[V:1]eB ge |
[V:2]z4 |
[V:3]z4 |
[V:4]z4 |
[V:1]a2 fd |
[V:2]f2 dA |
[V:3]B3 B |
[V:4]B,3 B, |
[V:1]eB AG |
[V:2]GG FE |
[V:3]E2 zE |
[V:4]E,2 zE, |
[V:1]FB, zc |
[V:2]DB, z2 |
[V:3]BB, z2 |
[V:4]B,B,, z2 |
[V:1]BE DA |
[V:2]z3 F |
[V:3]z3 D |
[V:4]z3 B,, |
[V:1]A2 Gc |
[V:2]F2 Ez |
[V:3]EB, E,2 |
[V:4]E,B,, E,2 |
[V:1]Be da |
[V:2]z3 f |
[V:3]z3 D |
[V:4]z3 B,, |
[V:1]a2 gb/g/ |
[V:2]f2 ez |
[V:3]EB, E,2 |
[V:4]E,B,, E,2 |
[V:1]eB eB |
[V:2][E2G,2] [G,2E2] |
[V:3]B,2 B,2 |
[V:4]E,2 E,2 |
[V:1]eB eG |
[V:2][E2G,2] [G,E]G |
[V:3]B,2 B,G |
[V:4]E,2 E,G, |
[V:1]AF BG |
[V:2]AF BG |
[V:3]AF BG |
[V:4]A,F, B,G, |
[V:1]E2 B,/B,/B,/B,/ |
[V:2]E2 B2- |
[V:3]E2 _G2- |
[V:4]E,2 z2 |
[V:1]B,/B,/B,/B,/ B,/B,/B,/B,/ |
[V:2]BA2 _G- |
[V:3]GF2 E- |
[V:4]D2 E2 |
[V:1]B,/B,/B,/B,/ B,/B,/B,/B,/ |
[V:2]GF2 B- |
[V:3]ED _G2- |
[V:4]B,2 z2 |
[V:1]B,/B,/B,/B,/ B,/B,/B,/B,/ |
[V:2]BA2 _G- |
[V:3]GF2 E- |
[V:4]D,2 E,2 |
[V:1]B,/B,/B,/B,/ B,/B,/B,/B,/ |
[V:2]GF B2- |
[V:3]ED _G2- |
[V:4]B,,2 z2 |
[V:1]B,/B,/B,/B,/ B,/B,/B,/B,/ |
[V:2]BA2 _G- |
[V:3]GF2 E- |
[V:4]D,2 E,2 |
[V:1]B,2 zB |
[V:2]GF z2 |
[V:3]ED z2 |
[V:4]B,,2 z2 |
[V:1]eB eB |
[V:2][G,2E2] [E2G,2] |
[V:3]E2 E2 |
[V:4]E,2 E,2 |
[V:1]e/d/e/f/ gG, |
[V:2][E2G,2] zG, |
[V:3]E2 zG, |
[V:4]E,2 zG,, |
[V:1]A,B, CD |
[V:2]A,B, CD |
[V:3]A,B, CD |
[V:4]A,,B,, C,D, |
[V:1]E/F/G/F/ EG, |
[V:2]E/F/G/F/ EG, |
[V:3]E/F/G/F/ EG, |
[V:4]E,/F,/G,/F,/ E,G,, |
[V:1]A,2 [D2A,2] |
[V:2]A,2 [D2A,2] |
[V:3]A,2 B,2 |
[V:4]A,,2 B,,2 |
[V:1][E2G,2] z2 |]
[V:2][E2G,2] z2 |]
[V:3]E2 z2 |]
[V:4]E,2 z2 |]

